!!!OTL: Der Spielmannssohn.
!!!OTL-incipit: Als ich ein kleines Buewele war,
!!!ARE: Europa, Mitteleuropa, Deutschland / France, Lothringen
!!!YOR: 3, S. 178
!!    ????
!!!SCT: Q0062I
!!!YEM: Copyright 1995, estate of Helmut Schaffrath.
**kern
*ICvox
*M6/8
*k[b-e-]
*B-:
!LO:TX:a:t=P
{8f
=1
8b-
8b-
8dd
8ccL
8b-J
8b-
=2
8b-
8a
8b-
4cc}
{8b-
=3
8b-
8b-
8b-
8cc
8b-
8b-
=4
4.f
4b-}
{8b-
=5
8b-
8b-
8b-
8cc
8cc
16ff
16ff
=6
8ff
8ff
8ee-
4ff
16ff
16ff
=7
8ff
8ff
8ee-
4ff}
{8b-
=8
8b-
8cc
8b-
8b-L
8aJ
8g
=9
4.f
4b-}
==
!!!AGN: Ballade, Verfuehrung, Standesunterschied, Strafe, Gnade
!! Anhaengsel in der dritten Zeile. In der Edition untextiert.
!!!ONB: ESAC (Essen Associative Code) Database: BALLADE
!!!AMT: compound duple
!!!AIN: vox
!!!EED: Helmut Schaffrath
!!!EEV: 1.0
!!!source: Deutsche Volkslieder mit ihren Melodien. Herausgegeben vom Deutschen Volksliedarchiv. Dritter Band Balladen. Berlin 1954.
!!!page: 178
!!!ENC: Anna Maria Matuszewska
!!!EEV: 2025/02/21
*-
